X:4419
L:1/8
Q:1/2=60
M:4/4
K:G
 G | Bd g2 a/g/f/e/ g2 | Bd g2 aAAc | Bd g2 a/g/f/e/ g2 | BdAd BG"^NB" G :: c | 
 Bd d(c/B/) ce e(d/c/) | Bd dc/B/ eAAc | Bd dc/B/ ce ed/c/ | BdAc BG"^NB" G :|

